Origami/64x64/apps/androidstudio.svg

<svg width="64" height="64" version="1" xmlns="http://www.w3.org/2000/svg">
 <path d="m23.921875 5.9414062c-0.08842 0.00545-0.176445 0.019072-0.265625 0.042969-0.7135 0.191182-1.134539 0.9193125-0.943359 1.6328125l1.685547 6.2871095c-8.389 4.0282-8.396485 14.429687-8.396485 14.429687v16.976563c0 3.152 2.378584 5.689453 5.333985 5.689453h2.666015v5.333984c0 1.4759998 1.522047 2.6660158 2.998047 2.6660158 1.478 0 3-1.190016 3-2.666016v-5.332031h4v5.332031c-2e-3 1.476 1.522 2.666016 3 2.666016 1.476 0 3-1.190016 3-2.666016v-5.333984h2.666016c2.956 0 5.333984-2.537453 5.333984-5.689453v-0.880859c0 1.423999 1.338 2.570312 3 2.570312s3-1.146266 3-2.572266v-12.857422c0-1.423999-1.338-2.570312-3-2.570312s-3 1.146266-3 2.572266v-3.238282s-0.0051-10.401687-8.396484-14.429687l1.683593-6.2871095c0.192-0.7136-0.229359-1.4416125-0.943359-1.6328125s-1.440813 0.2299594-1.632812 0.9433594l-1.619141 6.0468746c-1.488-0.4056-3.171797-0.640625-5.091797-0.640625-1.9201 0-3.602844 0.235085-5.089844 0.640625l-1.61914-6.0468746c-0.144-0.535-0.589469-0.9055625-1.105469-0.9765625h-2e-3c-0.0858-0.011842-0.173304-0.015215-0.261719-0.00977zm-10.921875 23.058594c-1.662 0-3 1.146266-3 2.572266v12.857422c0 1.423999 1.338 2.570312 3 2.570312s3-1.146266 3-2.572266v-12.857422c0-1.425999-1.338-2.570312-3-2.570312z" style="opacity:.2"/>
 <path d="m13 28c-1.662 0-3 1.146-3 2.572v12.8572c0 1.424 1.338 2.57 3 2.57s3-1.146 3-2.572v-12.856c0-1.426-1.338-2.572-3-2.572z" style="fill:#93b133"/>
 <path d="m24.184 4.9506c-0.1716-0.023684-0.35028-0.01394-0.52864 0.033854-0.7135 0.191182-1.13388 0.91932-0.9427 1.63282l1.6849 6.2864c-8.389 4.0282-8.396 14.4304-8.396 14.4304v16.9766c0 3.152 2.3786 5.69 5.334 5.69h2.666v5.334c0 1.476 1.52244 2.666 2.99844 2.666 1.478 0 3-1.19 3-2.666v-5.3334h4v5.3334c-2e-3 1.476 1.522 2.666 3 2.666 1.476 0 3-1.19 3-2.666v-5.334h2.66696c2.956 0 5.334-2.538 5.334-5.69v-16.9766s-7e-3 -10.4016-8.3984-14.4296l1.684-6.2872c0.192-0.7136-0.228-1.4416-0.942-1.6328s-1.442 0.2292-1.634 0.9426l-1.618 6.047c-1.488-0.4056-3.172-0.6406-5.092-0.6406-1.9201 0-3.6042 0.23508-5.0912 0.64062l-1.618-6.047c-0.144-0.535-0.59-0.9054-1.106-0.9764z" style="fill:#a4c639"/>
 <g transform="matrix(2,0,0,2,0,-1)" style="opacity:.2">
  <path d="m10.3 14h11.4c0.1662 0 0.3 0.223 0.3 0.5s-0.1338 0.5-0.3 0.5h-11.4c-0.166 0-0.3-0.223-0.3-0.5s0.134-0.5 0.3-0.5z"/>
  <circle cx="12" cy="11" r="1"/>
  <circle cx="20" cy="11" r="1"/>
 </g>
 <path d="m51 28c-1.662 0-3 1.146-3 2.572v12.8572c0 1.424 1.338 2.57 3 2.57s3-1.146 3-2.572v-12.8572c0-1.424-1.338-2.57-3-2.57z" style="fill:#93b133"/>
 <g transform="matrix(2,0,0,2,0,-2)" style="fill:#ffffff">
  <path d="m10.3 14h11.4c0.1662 0 0.3 0.223 0.3 0.5s-0.1338 0.5-0.3 0.5h-11.4c-0.166 0-0.3-0.223-0.3-0.5s0.134-0.5 0.3-0.5z"/>
  <circle cx="12" cy="11" r="1"/>
  <circle cx="20" cy="11" r="1"/>
 </g>
 <path d="m23.921875 4.9414062c-0.088415 0.0054499-0.176445 0.0190718-0.265625 0.0429688-0.7135 0.191182-1.134539 0.9193125-0.943359 1.6328125l0.05664 0.2109375c0.143077-0.3957269 0.447693-0.7261133 0.886719-0.84375 0.08918-0.023897 0.177205-0.0375188 0.265625-0.0429688 0.088415-0.005445 0.175919-0.0020763 0.261719 0.0097657h0.001953c0.516 0.071 0.961469 0.4415625 1.105469 0.9765625l1.61914 6.0468746c1.487-0.40554 3.169744-0.640625 5.089844-0.640625 1.92 0 3.603797 0.235025 5.091797 0.640625l1.619141-6.0468746c0.192-0.7134 0.918812-1.1345594 1.632812-0.9433594 0.428276 0.1146869 0.748003 0.4246333 0.896484 0.8066406l0.046875-0.1738281c0.192-0.7136-0.229359-1.4416125-0.943359-1.6328125s-1.440812 0.2299594-1.632812 0.9433594l-1.619141 6.0468746c-1.488-0.4056-3.171797-0.640625-5.091797-0.640625-1.9201 0-3.602844 0.235085-5.089844 0.640625l-1.61914-6.0468746c-0.144-0.535-0.589469-0.9055625-1.105469-0.9765625h-0.001953c-0.0858-0.011842-0.173304-0.0152153-0.261719-0.0097657zm0.242187 8.0859378c-8.149034 4.10946-8.162109 14.30664-8.162109 14.30664v1s0.007485-10.401487 8.396485-14.429687l-0.234376-0.876953zm15.673829 0l-0.234375 0.876953c8.391384 4.028 8.396484 14.429687 8.396484 14.429687v-1s-0.010789-10.197371-8.162109-14.30664zm-26.837891 14.972656c-1.662 0-3 1.146266-3 2.572266v1c0-1.426 1.338-2.572266 3-2.572266s3 1.144313 3 2.570312v-1c0-1.425999-1.338-2.570312-3-2.570312zm38 0c-1.662 0-3 1.146266-3 2.572266v1c0-1.426 1.338-2.572266 3-2.572266s3 1.146313 3 2.570312v-1c0-1.423999-1.338-2.570312-3-2.570312z" style="fill:#ffffff;opacity:.2"/>
</svg>

<svg xmlns="http://www.w3.org/2000/svg" width="64" height="64" version="1">
 <path style="opacity:0.2" d="m 23.921875,5.9414062 c -0.08842,0.00545 -0.176445,0.019072 -0.265625,0.042969 -0.7135,0.191182 -1.134539,0.9193125 -0.943359,1.6328125 l 1.685547,6.2871095 c -8.389,4.0282 -8.396485,14.429687 -8.396485,14.429687 l 0,16.976563 c 0,3.152 2.378584,5.689453 5.333985,5.689453 l 2.666015,0 0,5.333984 C 24.001953,57.809984 25.524,59 27,59 c 1.478,0 3,-1.190016 3,-2.666016 l 0,-5.332031 4,0 0,5.332031 C 33.998,57.809984 35.522,59 37,59 c 1.476,0 3,-1.190016 3,-2.666016 L 40,51 42.666016,51 C 45.622016,51 48,48.462547 48,45.310547 l 0,-0.880859 C 48,45.853687 49.338,47 51,47 c 1.662,0 3,-1.146266 3,-2.572266 L 54,31.570312 C 54,30.146313 52.662,29 51,29 c -1.662,0 -3,1.146266 -3,2.572266 l 0,-3.238282 c 0,0 -0.0051,-10.401687 -8.396484,-14.429687 l 1.683593,-6.2871095 c 0.192,-0.7136 -0.229359,-1.4416125 -0.943359,-1.6328125 -0.714,-0.1912 -1.440813,0.2299594 -1.632812,0.9433594 L 37.091797,12.974609 C 35.603797,12.569009 33.92,12.333984 32,12.333984 c -1.9201,0 -3.602844,0.235085 -5.089844,0.640625 l -1.61914,-6.0468746 c -0.144,-0.535 -0.589469,-0.9055625 -1.105469,-0.9765625 l -0.002,0 c -0.0858,-0.011842 -0.173304,-0.015215 -0.261719,-0.00977 z M 13,29 c -1.662,0 -3,1.146266 -3,2.572266 l 0,12.857422 C 10,45.853687 11.338,47 13,47 c 1.662,0 3,-1.146266 3,-2.572266 L 16,31.570312 C 16,30.144313 14.662,29 13,29 Z"/>
 <path style="fill:#93b133" d="m 13,28 c -1.662,0 -3,1.146 -3,2.572 l 0,12.8572 c 0,1.424 1.338,2.57 3,2.57 1.662,0 3,-1.146 3,-2.572 l 0,-12.856 c 0,-1.426 -1.338,-2.572 -3,-2.572 z"/>
 <path style="fill:#a4c639" d="m 24.184,4.9506 c -0.1716,-0.023684 -0.35028,-0.01394 -0.52864,0.033854 -0.7135,0.191182 -1.13388,0.91932 -0.9427,1.63282 l 1.6849,6.2864 c -8.389,4.0282 -8.396,14.4304 -8.396,14.4304 l 0,16.9766 c 0,3.152 2.3786,5.69 5.334,5.69 l 2.666,0 0,5.334 c 0,1.476 1.52244,2.666 2.99844,2.666 1.478,0 3,-1.19 3,-2.666 l 0,-5.3334 4,0 0,5.3334 c -0.002,1.476 1.522,2.666 3,2.666 1.476,0 3,-1.19 3,-2.666 l 0,-5.334 2.66696,0 c 2.956,0 5.334,-2.538 5.334,-5.69 l 0,-16.9766 c 0,0 -0.007,-10.4016 -8.3984,-14.4296 l 1.684,-6.2872 c 0.192,-0.7136 -0.228,-1.4416 -0.942,-1.6328 -0.714,-0.1912 -1.442,0.2292 -1.634,0.9426 l -1.618,6.047 c -1.488,-0.4056 -3.172,-0.6406 -5.092,-0.6406 -1.9201,0 -3.6042,0.23508 -5.0912,0.64062 l -1.618,-6.047 c -0.144,-0.535 -0.59,-0.9054 -1.106,-0.9764 z"/>
 <g style="opacity:0.2" transform="matrix(2,0,0,2,0,-1)">
  <path d="m 10.3,14 11.4,0 c 0.1662,0 0.3,0.223 0.3,0.5 0,0.277 -0.1338,0.5 -0.3,0.5 L 10.3,15 C 10.134,15 10,14.777 10,14.5 10,14.223 10.134,14 10.3,14 Z"/>
  <circle cx="12" cy="11" r="1"/>
  <circle cx="20" cy="11" r="1"/>
 </g>
 <path style="fill:#93b133" d="m 51,28 c -1.662,0 -3,1.146 -3,2.572 l 0,12.8572 c 0,1.424 1.338,2.57 3,2.57 1.662,0 3,-1.146 3,-2.572 L 54,30.57 C 54,29.146 52.662,28 51,28 Z"/>
 <g style="fill:#ffffff" transform="matrix(2,0,0,2,0,-2)">
  <path d="m 10.3,14 11.4,0 c 0.1662,0 0.3,0.223 0.3,0.5 0,0.277 -0.1338,0.5 -0.3,0.5 L 10.3,15 C 10.134,15 10,14.777 10,14.5 10,14.223 10.134,14 10.3,14 Z"/>
  <circle cx="12" cy="11" r="1"/>
  <circle cx="20" cy="11" r="1"/>
 </g>
 <path style="fill:#ffffff;opacity:0.2" d="M 23.921875 4.9414062 C 23.83346 4.9468561 23.74543 4.960478 23.65625 4.984375 C 22.94275 5.175557 22.521711 5.9036875 22.712891 6.6171875 L 22.769531 6.828125 C 22.912608 6.4323981 23.217224 6.1020117 23.65625 5.984375 C 23.74543 5.960478 23.833455 5.9468562 23.921875 5.9414062 C 24.01029 5.9359612 24.097794 5.9393299 24.183594 5.9511719 L 24.185547 5.9511719 C 24.701547 6.0221719 25.147016 6.3927344 25.291016 6.9277344 L 26.910156 12.974609 C 28.397156 12.569069 30.0799 12.333984 32 12.333984 C 33.92 12.333984 35.603797 12.569009 37.091797 12.974609 L 38.710938 6.9277344 C 38.902938 6.2143344 39.62975 5.793175 40.34375 5.984375 C 40.772026 6.0990619 41.091753 6.4090083 41.240234 6.7910156 L 41.287109 6.6171875 C 41.479109 5.9035875 41.05775 5.175575 40.34375 4.984375 C 39.62975 4.793175 38.902938 5.2143344 38.710938 5.9277344 L 37.091797 11.974609 C 35.603797 11.569009 33.92 11.333984 32 11.333984 C 30.0799 11.333984 28.397156 11.569069 26.910156 11.974609 L 25.291016 5.9277344 C 25.147016 5.3927344 24.701547 5.0221719 24.185547 4.9511719 L 24.183594 4.9511719 C 24.097794 4.9393299 24.01029 4.9359566 23.921875 4.9414062 z M 24.164062 13.027344 C 16.015028 17.136804 16.001953 27.333984 16.001953 27.333984 L 16.001953 28.333984 C 16.001953 28.333984 16.009438 17.932497 24.398438 13.904297 L 24.164062 13.027344 z M 39.837891 13.027344 L 39.603516 13.904297 C 47.9949 17.932297 48 28.333984 48 28.333984 L 48 27.333984 C 48 27.333984 47.989211 17.136613 39.837891 13.027344 z M 13 28 C 11.338 28 10 29.146266 10 30.572266 L 10 31.572266 C 10 30.146266 11.338 29 13 29 C 14.662 29 16 30.144313 16 31.570312 L 16 30.570312 C 16 29.144313 14.662 28 13 28 z M 51 28 C 49.338 28 48 29.146266 48 30.572266 L 48 31.572266 C 48 30.146266 49.338 29 51 29 C 52.662 29 54 30.146313 54 31.570312 L 54 30.570312 C 54 29.146313 52.662 28 51 28 z"/>
</svg>
